X:71
C:Page 36
T:Mrs Harrisons Favourite. MBe.71
S:Matthew Betham MS, Towcett Cumbria, 1815
O:England;Cumbria;Towcett
Z:VMP – Hugh Taylor, 2012
M:6/8
L:1/8
Q:3/8=100
R:.Jig
K:C
g|g2 e e2 c|c3 G2 G|ABc cBA|GGG G2 g|
g2 e e2 c|c3 G2 c|ABc dcB|ccc c2:|
|:e|d2 G G2 e|d2 G G2 c|Bdg BcA|GGG G2 e|
d2 G G2 e|d2 G G2 c|Bdg BcA|GGG GBd|
g2 e e2 c|c3 B2 B|ABc cBA|GGG GBd|
g2 e e2 c|c3 G2 G|ABc dcB|ccc c:|

